X:10583
T:Mazurka-valse - Les Valcerves (M. Perrone)
C:Trad 3, 48
M:3/4
L:1/8
K:C
e2f2e2|A2c2e2|a2b2a2|e6|A2c2e2|1 d3cd2|\
e2d2c2|BA ^GA Bc:|2 ^f6|c'2d'2c'2|a6:||\
e>f e>c A>c|e>f e>c A>c|(3ded (3cdc (3Bcd|e>c A>B c>d|\
e>c A>B c>d|e>c A>B c>c|(3ded (3cdc (3BcB|A2A4|\
e>c A>B c>d|e>c A>B c>c|(3ded (3cdc (3Bcd|e>c A>B c>d|\
e>c A>B c>d|e>c A>B c>c|(3ded (3cdc (3BcB|A2A4||*
P: Var
eAfAe2|A2cA ce|aAbAab|ec Ae cA|A2cAeA|1 d3cd2|\
e2 (3ded (3cdc|BA ^GA Bc:|2 ^f2 A2d2 A2d2|c'2d'2c'2|a6:||**
